packages/webapp/public/images/template-logos/github.svg

<svg width="62" height="62" viewBox="0 0 62 62" fill="none" xmlns="http://www.w3.org/2000/svg">
<rect width="62" height="62" rx="10" fill="white"/>
<g clip-path="url(#clip0_496_1058)">
<path fill-rule="evenodd" clip-rule="evenodd" d="M30.9344 9C18.8053 9 9 18.8776 9 31.0974C9 40.8654 15.2826 49.1338 23.9982 52.0603C25.0878 52.2803 25.487 51.5848 25.487 50.9998C25.487 50.4875 25.4511 48.7315 25.4511 46.902C19.3494 48.2193 18.0788 44.2678 18.0788 44.2678C17.0982 41.7068 15.6453 41.0486 15.6453 41.0486C13.6483 39.6949 15.7908 39.6949 15.7908 39.6949C18.0061 39.8413 19.1685 41.9632 19.1685 41.9632C21.1292 45.3287 24.2887 44.3778 25.5597 43.7923C25.7411 42.3655 26.3225 41.3777 26.9399 40.8291C22.0734 40.3168 16.9532 38.4144 16.9532 29.9265C16.9532 27.5119 17.8242 25.5364 19.2044 24C18.9867 23.4513 18.2238 21.1826 19.4226 18.1462C19.4226 18.1462 21.2747 17.5607 25.4506 20.4144C27.2385 19.9307 29.0823 19.6846 30.9344 19.6826C32.7865 19.6826 34.6744 19.9389 36.4178 20.4144C40.5942 17.5607 42.4463 18.1462 42.4463 18.1462C43.6451 21.1826 42.8818 23.4513 42.664 24C44.0806 25.5364 44.9157 27.5119 44.9157 29.9265C44.9157 38.4144 39.7955 40.28 34.8927 40.8291C35.6918 41.5241 36.3815 42.8409 36.3815 44.9264C36.3815 47.8897 36.3455 50.268 36.3455 50.9993C36.3455 51.5848 36.7451 52.2803 37.8344 52.0607C46.55 49.1334 52.8325 40.8654 52.8325 31.0974C52.8684 18.8776 43.0273 9 30.9344 9Z" fill="#24292F"/>
</g>
<defs>
<clipPath id="clip0_496_1058">
<rect width="44" height="43.102" fill="white" transform="translate(9 9)"/>
</clipPath>
</defs>
</svg>

<svg xmlns="http://www.w3.org/2000/svg" width="62" height="62" fill="none"><rect width="62" height="62" rx="31" fill="#fff"/><g clip-path="url(#A)"><path fill-rule="evenodd" d="M30.934 9C18.805 9 9 18.878 9 31.097c0 9.768 6.283 18.036 14.998 20.963 1.09.22 1.489-.475 1.489-1.06l-.036-4.098c-6.102 1.317-7.372-2.634-7.372-2.634-.981-2.561-2.434-3.219-2.434-3.219-1.997-1.354.146-1.354.146-1.354 2.215.146 3.378 2.268 3.378 2.268 1.961 3.365 5.12 2.415 6.391 1.829.181-1.427.763-2.415 1.38-2.963-4.867-.512-9.987-2.415-9.987-10.903 0-2.415.871-4.39 2.251-5.927-.218-.549-.981-2.817.218-5.854 0 0 1.852-.585 6.028 2.268 1.788-.484 3.632-.73 5.484-.732s3.74.256 5.483.732c4.176-2.854 6.029-2.268 6.029-2.268 1.199 3.036.435 5.305.218 5.854 1.417 1.536 2.252 3.512 2.252 5.927 0 8.488-5.12 10.354-10.023 10.903.799.695 1.489 2.012 1.489 4.097l-.036 6.073c0 .586.4 1.281 1.489 1.061 8.716-2.927 14.998-11.195 14.998-20.963C52.868 18.878 43.027 9 30.934 9z" fill="#24292f"/></g><defs><clipPath id="A"><path fill="#fff" transform="translate(9 9)" d="M0 0h44v43.102H0z"/></clipPath></defs></svg>
